people/bulk-update.svg

<svg xmlns="http://www.w3.org/2000/svg" viewBox="0 0 16 16"><defs><style>.cls-1{fill:#010101}</style></defs><title>bulk-update</title><path class="cls-1" d="M.387 1.938A.387.387 0 0 0 0 2.324v1.688a.387.387 0 0 0 .387.388h8.054l.806-.949 1.284-1.512zM0 6.665v1.688a.387.387 0 0 0 .387.387h4.366l2.091-2.462H.387A.387.387 0 0 0 0 6.665zM13.151 10.7h-.629l-2.091 2.461h2.72a.387.387 0 0 0 .387-.387v-1.685a.387.387 0 0 0-.387-.389zM0 11.089v1.688a.387.387 0 0 0 .387.387h2.005l.039-1.579a.32.32 0 0 1 .076-.2l.58-.683h-2.7a.387.387 0 0 0-.387.387zm13.02-9.107l-1.307 1.537 2.813 2.389 1.306-1.538a.4.4 0 0 0-.046-.563l-2.2-1.873a.4.4 0 0 0-.566.048zM4.458 15.42l2.367-.446-2.781-2.363-.059 2.406a.4.4 0 0 0 .473.403zm.153-3.508L7.424 14.3l6.514-7.7-2.813-2.388z" id="Layer_1" data-name="Layer 1"/></svg>

<svg xmlns="http://www.w3.org/2000/svg" viewBox="0 0 16 16"><defs><style>.cls-1{fill:#010101;}</style></defs><title>bulk-update</title><g id="Layer_1" data-name="Layer 1"><path class="cls-1" d="M.387,1.938A.387.387,0,0,0,0,2.324V4.012A.387.387,0,0,0,.387,4.4H8.441l.806-.949,1.284-1.512ZM0,6.665V8.353a.387.387,0,0,0,.387.387H4.753L6.844,6.278H.387A.387.387,0,0,0,0,6.665ZM13.151,10.7h-.629l-2.091,2.461h2.72a.387.387,0,0,0,.387-.387V11.089A.387.387,0,0,0,13.151,10.7ZM0,11.089v1.688a.387.387,0,0,0,.387.387H2.392l.039-1.579a.32.32,0,0,1,.076-.2l.58-.683H.387A.387.387,0,0,0,0,11.089Z"/><path class="cls-1" d="M13.02,1.982,11.713,3.519l2.813,2.389,1.306-1.538a.4.4,0,0,0-.046-.563l-2.2-1.873A.4.4,0,0,0,13.02,1.982ZM4.458,15.42l2.367-.446L4.044,12.611l-.059,2.406A.4.4,0,0,0,4.458,15.42Zm.153-3.508L7.424,14.3l6.514-7.7L11.125,4.212Z"/></g></svg>
